images/51029093.svg

<?xml version="1.0" encoding="UTF-8"?>
<svg xmlns="http://www.w3.org/2000/svg" xmlns:xlink="http://www.w3.org/1999/xlink" width="300pt" height="300pt" viewBox="0 0 300 300" version="1.1">
<defs>
<g>
<symbol overflow="visible" id="glyph0-0">
<path style="stroke:none;" d="M 0.453125 1.59375 L 0.453125 -6.34375 L 4.953125 -6.34375 L 4.953125 1.59375 Z M 0.953125 1.09375 L 4.453125 1.09375 L 4.453125 -5.84375 L 0.953125 -5.84375 Z M 0.953125 1.09375 "/>
</symbol>
<symbol overflow="visible" id="glyph0-1">
<path style="stroke:none;" d="M 0.890625 -6.5625 L 4.65625 -6.5625 L 4.65625 -5.8125 L 1.765625 -5.8125 L 1.765625 -3.875 L 4.375 -3.875 L 4.375 -3.140625 L 1.765625 -3.140625 L 1.765625 0 L 0.890625 0 Z M 0.890625 -6.5625 "/>
</symbol>
<symbol overflow="visible" id="glyph0-2">
<path style="stroke:none;" d="M 3.546875 -5.953125 C 2.898438 -5.953125 2.382812 -5.710938 2 -5.234375 C 1.625 -4.753906 1.4375 -4.101562 1.4375 -3.28125 C 1.4375 -2.445312 1.625 -1.789062 2 -1.3125 C 2.382812 -0.832031 2.898438 -0.59375 3.546875 -0.59375 C 4.191406 -0.59375 4.703125 -0.832031 5.078125 -1.3125 C 5.453125 -1.789062 5.640625 -2.445312 5.640625 -3.28125 C 5.640625 -4.101562 5.453125 -4.753906 5.078125 -5.234375 C 4.703125 -5.710938 4.191406 -5.953125 3.546875 -5.953125 Z M 3.546875 -6.6875 C 4.460938 -6.6875 5.195312 -6.375 5.75 -5.75 C 6.300781 -5.132812 6.578125 -4.3125 6.578125 -3.28125 C 6.578125 -2.238281 6.300781 -1.410156 5.75 -0.796875 C 5.195312 -0.179688 4.460938 0.125 3.546875 0.125 C 2.617188 0.125 1.878906 -0.179688 1.328125 -0.796875 C 0.773438 -1.410156 0.5 -2.238281 0.5 -3.28125 C 0.5 -4.3125 0.773438 -5.132812 1.328125 -5.75 C 1.878906 -6.375 2.617188 -6.6875 3.546875 -6.6875 Z M 3.546875 -6.6875 "/>
</symbol>
<symbol overflow="visible" id="glyph0-3">
<path style="stroke:none;" d="M 0.890625 -6.5625 L 2.078125 -6.5625 L 4.984375 -1.078125 L 4.984375 -6.5625 L 5.84375 -6.5625 L 5.84375 0 L 4.65625 0 L 1.75 -5.484375 L 1.75 0 L 0.890625 0 Z M 0.890625 -6.5625 "/>
</symbol>
<symbol overflow="visible" id="glyph0-4">
<path style="stroke:none;" d="M 0.890625 -6.5625 L 1.765625 -6.5625 L 1.765625 -3.875 L 5 -3.875 L 5 -6.5625 L 5.890625 -6.5625 L 5.890625 0 L 5 0 L 5 -3.125 L 1.765625 -3.125 L 1.765625 0 L 0.890625 0 Z M 0.890625 -6.5625 "/>
</symbol>
</g>
</defs>
<g id="surface24813">
<rect x="0" y="0" width="300" height="300" style="fill:rgb(100%,100%,100%);fill-opacity:1;stroke:none;"/>
<path style="fill:none;stroke-width:1.2;stroke-linecap:butt;stroke-linejoin:miter;stroke:rgb(20%,80%,80%);stroke-opacity:1;stroke-miterlimit:10;" d="M 39.859375 169.558594 L 43.96875 161.109375 "/>
<path style="fill:none;stroke-width:1.2;stroke-linecap:butt;stroke-linejoin:miter;stroke:rgb(0%,0%,0%);stroke-opacity:1;stroke-miterlimit:10;" d="M 43.96875 161.109375 L 48.078125 152.660156 "/>
<path style=" stroke:none;fill-rule:nonzero;fill:rgb(100%,100%,100%);fill-opacity:1;" d="M 33.859375 164.058594 L 39.859375 164.058594 L 39.859375 175.058594 L 33.859375 175.058594 Z M 33.859375 164.058594 "/>
<g style="fill:rgb(20%,80%,80%);fill-opacity:1;">
  <use xlink:href="#glyph0-1" x="33.859375" y="172.72168"/>
</g>
<path style="fill:none;stroke-width:1.2;stroke-linecap:butt;stroke-linejoin:miter;stroke:rgb(0%,0%,0%);stroke-opacity:1;stroke-miterlimit:10;" d="M 48.078125 152.660156 L 37.554688 137.097656 "/>
<path style="fill:none;stroke-width:1.2;stroke-linecap:butt;stroke-linejoin:miter;stroke:rgb(0%,0%,0%);stroke-opacity:1;stroke-miterlimit:10;" d="M 50.6875 148.628906 L 42.269531 136.179688 "/>
<path style="fill:none;stroke-width:1.2;stroke-linecap:butt;stroke-linejoin:miter;stroke:rgb(0%,0%,0%);stroke-opacity:1;stroke-miterlimit:10;" d="M 66.820312 151.332031 L 48.078125 152.660156 "/>
<path style="fill:none;stroke-width:1.2;stroke-linecap:butt;stroke-linejoin:miter;stroke:rgb(0%,0%,0%);stroke-opacity:1;stroke-miterlimit:10;" d="M 37.554688 137.097656 L 45.773438 120.203125 "/>
<path style="fill:none;stroke-width:1.2;stroke-linecap:butt;stroke-linejoin:miter;stroke:rgb(0%,0%,0%);stroke-opacity:1;stroke-miterlimit:10;" d="M 45.773438 120.203125 L 40.511719 112.417969 "/>
<path style="fill:none;stroke-width:1.2;stroke-linecap:butt;stroke-linejoin:miter;stroke:rgb(20%,80%,80%);stroke-opacity:1;stroke-miterlimit:10;" d="M 40.511719 112.417969 L 35.25 104.636719 "/>
<path style="fill:none;stroke-width:1.2;stroke-linecap:butt;stroke-linejoin:miter;stroke:rgb(0%,0%,0%);stroke-opacity:1;stroke-miterlimit:10;" d="M 45.773438 120.203125 L 64.515625 118.871094 "/>
<path style="fill:none;stroke-width:1.2;stroke-linecap:butt;stroke-linejoin:miter;stroke:rgb(0%,0%,0%);stroke-opacity:1;stroke-miterlimit:10;" d="M 47.960938 124.476562 L 62.953125 123.414062 "/>
<path style=" stroke:none;fill-rule:nonzero;fill:rgb(100%,100%,100%);fill-opacity:1;" d="M 29.25 99.136719 L 35.25 99.136719 L 35.25 110.136719 L 29.25 110.136719 Z M 29.25 99.136719 "/>
<g style="fill:rgb(20%,80%,80%);fill-opacity:1;">
  <use xlink:href="#glyph0-1" x="29.25" y="107.799805"/>
</g>
<path style="fill:none;stroke-width:1.2;stroke-linecap:butt;stroke-linejoin:miter;stroke:rgb(0%,0%,0%);stroke-opacity:1;stroke-miterlimit:10;" d="M 64.515625 118.871094 L 75.035156 134.433594 "/>
<path style="fill:none;stroke-width:1.2;stroke-linecap:butt;stroke-linejoin:miter;stroke:rgb(0%,0%,0%);stroke-opacity:1;stroke-miterlimit:10;" d="M 75.035156 134.433594 L 66.820312 151.332031 "/>
<path style="fill:none;stroke-width:1.2;stroke-linecap:butt;stroke-linejoin:miter;stroke:rgb(0%,0%,0%);stroke-opacity:1;stroke-miterlimit:10;" d="M 70.238281 134.191406 L 63.664062 147.707031 "/>
<path style="fill:none;stroke-width:1.2;stroke-linecap:butt;stroke-linejoin:miter;stroke:rgb(0%,0%,0%);stroke-opacity:1;stroke-miterlimit:10;" d="M 66.820312 151.332031 L 72.082031 159.113281 "/>
<path style="fill:none;stroke-width:1.2;stroke-linecap:butt;stroke-linejoin:miter;stroke:rgb(100%,0%,0%);stroke-opacity:1;stroke-miterlimit:10;" d="M 72.082031 159.113281 L 77.34375 166.894531 "/>
<path style="fill:none;stroke-width:1.2;stroke-linecap:butt;stroke-linejoin:miter;stroke:rgb(100%,0%,0%);stroke-opacity:1;stroke-miterlimit:10;" d="M 77.34375 166.894531 L 86.710938 166.230469 "/>
<path style="fill:none;stroke-width:1.2;stroke-linecap:butt;stroke-linejoin:miter;stroke:rgb(0%,0%,0%);stroke-opacity:1;stroke-miterlimit:10;" d="M 86.710938 166.230469 L 96.082031 165.566406 "/>
<path style=" stroke:none;fill-rule:nonzero;fill:rgb(100%,100%,100%);fill-opacity:1;" d="M 73.34375 161.394531 L 81.34375 161.394531 L 81.34375 172.394531 L 73.34375 172.394531 Z M 73.34375 161.394531 "/>
<g style="fill:rgb(100%,0%,0%);fill-opacity:1;">
  <use xlink:href="#glyph0-2" x="73.34375" y="170.057617"/>
</g>
<path style="fill:none;stroke-width:1.2;stroke-linecap:butt;stroke-linejoin:miter;stroke:rgb(0%,0%,0%);stroke-opacity:1;stroke-miterlimit:10;" d="M 96.082031 165.566406 L 101.34375 173.347656 "/>
<path style="fill:none;stroke-width:1.2;stroke-linecap:butt;stroke-linejoin:miter;stroke:rgb(0%,0%,100%);stroke-opacity:1;stroke-miterlimit:10;" d="M 101.34375 173.347656 L 106.605469 181.128906 "/>
<path style="fill:none;stroke-width:1.2;stroke-linecap:butt;stroke-linejoin:miter;stroke:rgb(0%,0%,0%);stroke-opacity:1;stroke-miterlimit:10;" d="M 100.796875 164.644531 L 105.007812 170.871094 "/>
<path style="fill:none;stroke-width:1.2;stroke-linecap:butt;stroke-linejoin:miter;stroke:rgb(0%,0%,100%);stroke-opacity:1;stroke-miterlimit:10;" d="M 105.007812 170.871094 L 109.214844 177.097656 "/>
<path style="fill:none;stroke-width:1.2;stroke-linecap:butt;stroke-linejoin:miter;stroke:rgb(0%,0%,0%);stroke-opacity:1;stroke-miterlimit:10;" d="M 104.300781 148.667969 L 96.082031 165.566406 "/>
<path style="fill:none;stroke-width:1.2;stroke-linecap:butt;stroke-linejoin:miter;stroke:rgb(0%,0%,100%);stroke-opacity:1;stroke-miterlimit:10;" d="M 106.605469 181.128906 L 125.347656 179.796875 "/>
<path style=" stroke:none;fill-rule:nonzero;fill:rgb(100%,100%,100%);fill-opacity:1;" d="M 103.605469 175.628906 L 110.605469 175.628906 L 110.605469 186.628906 L 103.605469 186.628906 Z M 103.605469 175.628906 "/>
<g style="fill:rgb(0%,0%,100%);fill-opacity:1;">
  <use xlink:href="#glyph0-3" x="103.605469" y="184.291992"/>
</g>
<path style="fill:none;stroke-width:1.2;stroke-linecap:butt;stroke-linejoin:miter;stroke:rgb(0%,0%,100%);stroke-opacity:1;stroke-miterlimit:10;" d="M 125.347656 179.796875 L 129.457031 171.351562 "/>
<path style="fill:none;stroke-width:1.2;stroke-linecap:butt;stroke-linejoin:miter;stroke:rgb(0%,0%,0%);stroke-opacity:1;stroke-miterlimit:10;" d="M 129.457031 171.351562 L 133.566406 162.902344 "/>
<path style="fill:none;stroke-width:1.2;stroke-linecap:butt;stroke-linejoin:miter;stroke:rgb(0%,0%,0%);stroke-opacity:1;stroke-miterlimit:10;" d="M 135.871094 195.363281 L 130.609375 187.582031 "/>
<path style="fill:none;stroke-width:1.2;stroke-linecap:butt;stroke-linejoin:miter;stroke:rgb(0%,0%,100%);stroke-opacity:1;stroke-miterlimit:10;" d="M 130.609375 187.582031 L 125.347656 179.796875 "/>
<path style=" stroke:none;fill-rule:nonzero;fill:rgb(100%,100%,100%);fill-opacity:1;" d="M 122.347656 174.296875 L 129.347656 174.296875 L 129.347656 185.296875 L 122.347656 185.296875 Z M 122.347656 174.296875 "/>
<g style="fill:rgb(0%,0%,100%);fill-opacity:1;">
  <use xlink:href="#glyph0-3" x="122.347656" y="182.959961"/>
</g>
<path style="fill:none;stroke-width:1.2;stroke-linecap:butt;stroke-linejoin:miter;stroke:rgb(0%,0%,0%);stroke-opacity:1;stroke-miterlimit:10;" d="M 133.566406 162.902344 L 123.042969 147.339844 "/>
<path style="fill:none;stroke-width:1.2;stroke-linecap:butt;stroke-linejoin:miter;stroke:rgb(0%,0%,0%);stroke-opacity:1;stroke-miterlimit:10;" d="M 133.566406 162.902344 L 152.304688 161.570312 "/>
<path style="fill:none;stroke-width:1.2;stroke-linecap:butt;stroke-linejoin:miter;stroke:rgb(0%,0%,0%);stroke-opacity:1;stroke-miterlimit:10;" d="M 135.75 167.179688 L 150.746094 166.113281 "/>
<path style="fill:none;stroke-width:1.2;stroke-linecap:butt;stroke-linejoin:miter;stroke:rgb(0%,0%,0%);stroke-opacity:1;stroke-miterlimit:10;" d="M 123.042969 147.339844 L 104.300781 148.667969 "/>
<path style="fill:none;stroke-width:1.2;stroke-linecap:butt;stroke-linejoin:miter;stroke:rgb(0%,0%,0%);stroke-opacity:1;stroke-miterlimit:10;" d="M 121.480469 151.878906 L 106.488281 152.945312 "/>
<path style="fill:none;stroke-width:1.2;stroke-linecap:butt;stroke-linejoin:miter;stroke:rgb(0%,0%,0%);stroke-opacity:1;stroke-miterlimit:10;" d="M 152.304688 161.570312 L 160.523438 144.675781 "/>
<path style="fill:none;stroke-width:1.2;stroke-linecap:butt;stroke-linejoin:miter;stroke:rgb(0%,0%,0%);stroke-opacity:1;stroke-miterlimit:10;" d="M 152.304688 161.570312 L 162.828125 177.136719 "/>
<path style="fill:none;stroke-width:1.2;stroke-linecap:butt;stroke-linejoin:miter;stroke:rgb(0%,0%,0%);stroke-opacity:1;stroke-miterlimit:10;" d="M 160.523438 144.675781 L 179.265625 143.34375 "/>
<path style="fill:none;stroke-width:1.2;stroke-linecap:butt;stroke-linejoin:miter;stroke:rgb(0%,0%,0%);stroke-opacity:1;stroke-miterlimit:10;" d="M 162.082031 140.132812 L 177.078125 139.070312 "/>
<path style="fill:none;stroke-width:1.2;stroke-linecap:butt;stroke-linejoin:miter;stroke:rgb(0%,0%,0%);stroke-opacity:1;stroke-miterlimit:10;" d="M 150 129.113281 L 160.523438 144.675781 "/>
<path style="fill:none;stroke-width:1.2;stroke-linecap:butt;stroke-linejoin:miter;stroke:rgb(0%,0%,0%);stroke-opacity:1;stroke-miterlimit:10;" d="M 179.265625 143.34375 L 187.480469 126.449219 "/>
<path style="fill:none;stroke-width:1.2;stroke-linecap:butt;stroke-linejoin:miter;stroke:rgb(0%,0%,0%);stroke-opacity:1;stroke-miterlimit:10;" d="M 187.480469 126.449219 L 176.957031 110.886719 "/>
<path style="fill:none;stroke-width:1.2;stroke-linecap:butt;stroke-linejoin:miter;stroke:rgb(0%,0%,0%);stroke-opacity:1;stroke-miterlimit:10;" d="M 182.765625 127.367188 L 174.347656 114.917969 "/>
<path style="fill:none;stroke-width:1.2;stroke-linecap:butt;stroke-linejoin:miter;stroke:rgb(0%,0%,0%);stroke-opacity:1;stroke-miterlimit:10;" d="M 187.480469 126.449219 L 206.222656 125.117188 "/>
<path style="fill:none;stroke-width:1.2;stroke-linecap:butt;stroke-linejoin:miter;stroke:rgb(0%,0%,0%);stroke-opacity:1;stroke-miterlimit:10;" d="M 176.957031 110.886719 L 158.21875 112.214844 "/>
<path style="fill:none;stroke-width:1.2;stroke-linecap:butt;stroke-linejoin:miter;stroke:rgb(0%,0%,0%);stroke-opacity:1;stroke-miterlimit:10;" d="M 158.21875 112.214844 L 150 129.113281 "/>
<path style="fill:none;stroke-width:1.2;stroke-linecap:butt;stroke-linejoin:miter;stroke:rgb(0%,0%,0%);stroke-opacity:1;stroke-miterlimit:10;" d="M 161.371094 115.839844 L 154.796875 129.355469 "/>
<path style="fill:none;stroke-width:1.2;stroke-linecap:butt;stroke-linejoin:miter;stroke:rgb(0%,0%,0%);stroke-opacity:1;stroke-miterlimit:10;" d="M 150 129.113281 L 131.257812 130.441406 "/>
<path style="fill:none;stroke-width:1.2;stroke-linecap:butt;stroke-linejoin:miter;stroke:rgb(0%,0%,0%);stroke-opacity:1;stroke-miterlimit:10;" d="M 131.257812 130.441406 L 120.734375 114.878906 "/>
<path style="fill:none;stroke-width:1.2;stroke-linecap:butt;stroke-linejoin:miter;stroke:rgb(0%,0%,0%);stroke-opacity:1;stroke-miterlimit:10;" d="M 208.210938 126.085938 L 212.320312 117.636719 "/>
<path style="fill:none;stroke-width:1.2;stroke-linecap:butt;stroke-linejoin:miter;stroke:rgb(100%,0%,0%);stroke-opacity:1;stroke-miterlimit:10;" d="M 212.320312 117.636719 L 216.429688 109.191406 "/>
<path style="fill:none;stroke-width:1.2;stroke-linecap:butt;stroke-linejoin:miter;stroke:rgb(0%,0%,0%);stroke-opacity:1;stroke-miterlimit:10;" d="M 204.234375 124.152344 L 208.34375 115.703125 "/>
<path style="fill:none;stroke-width:1.2;stroke-linecap:butt;stroke-linejoin:miter;stroke:rgb(100%,0%,0%);stroke-opacity:1;stroke-miterlimit:10;" d="M 208.34375 115.703125 L 212.453125 107.257812 "/>
<path style="fill:none;stroke-width:1.2;stroke-linecap:butt;stroke-linejoin:miter;stroke:rgb(0%,0%,0%);stroke-opacity:1;stroke-miterlimit:10;" d="M 206.222656 125.117188 L 211.484375 132.902344 "/>
<path style="fill:none;stroke-width:1.2;stroke-linecap:butt;stroke-linejoin:miter;stroke:rgb(0%,0%,100%);stroke-opacity:1;stroke-miterlimit:10;" d="M 211.484375 132.902344 L 216.746094 140.683594 "/>
<path style=" stroke:none;fill-rule:nonzero;fill:rgb(100%,100%,100%);fill-opacity:1;" d="M 210.441406 102.722656 L 218.441406 102.722656 L 218.441406 113.722656 L 210.441406 113.722656 Z M 210.441406 102.722656 "/>
<g style="fill:rgb(100%,0%,0%);fill-opacity:1;">
  <use xlink:href="#glyph0-2" x="210.441406" y="111.385742"/>
</g>
<path style="fill:none;stroke-width:1.2;stroke-linecap:butt;stroke-linejoin:miter;stroke:rgb(0%,0%,100%);stroke-opacity:1;stroke-miterlimit:10;" d="M 216.746094 140.683594 L 226.117188 140.015625 "/>
<path style="fill:none;stroke-width:1.2;stroke-linecap:butt;stroke-linejoin:miter;stroke:rgb(0%,0%,0%);stroke-opacity:1;stroke-miterlimit:10;" d="M 226.117188 140.015625 L 235.484375 139.351562 "/>
<path style=" stroke:none;fill-rule:nonzero;fill:rgb(100%,100%,100%);fill-opacity:1;" d="M 209.746094 135.183594 L 223.746094 135.183594 L 223.746094 146.183594 L 209.746094 146.183594 Z M 209.746094 135.183594 "/>
<g style="fill:rgb(0%,0%,100%);fill-opacity:1;">
  <use xlink:href="#glyph0-3" x="209.746094" y="143.84668"/>
  <use xlink:href="#glyph0-4" x="216.723633" y="143.84668"/>
</g>
<path style="fill:none;stroke-width:1.2;stroke-linecap:butt;stroke-linejoin:miter;stroke:rgb(0%,0%,0%);stroke-opacity:1;stroke-miterlimit:10;" d="M 235.484375 139.351562 L 246.007812 154.917969 "/>
<path style="fill:none;stroke-width:1.2;stroke-linecap:butt;stroke-linejoin:miter;stroke:rgb(0%,0%,0%);stroke-opacity:1;stroke-miterlimit:10;" d="M 246.007812 154.917969 L 264.75 153.585938 "/>
<path style="fill:none;stroke-width:1.2;stroke-linecap:butt;stroke-linejoin:miter;stroke:rgb(0%,0%,0%);stroke-opacity:1;stroke-miterlimit:10;" d="M 162.984375 179.339844 L 172.355469 178.675781 "/>
<path style="fill:none;stroke-width:1.2;stroke-linecap:butt;stroke-linejoin:miter;stroke:rgb(100%,0%,0%);stroke-opacity:1;stroke-miterlimit:10;" d="M 172.355469 178.675781 L 181.726562 178.011719 "/>
<path style="fill:none;stroke-width:1.2;stroke-linecap:butt;stroke-linejoin:miter;stroke:rgb(0%,0%,0%);stroke-opacity:1;stroke-miterlimit:10;" d="M 162.671875 174.929688 L 172.042969 174.265625 "/>
<path style="fill:none;stroke-width:1.2;stroke-linecap:butt;stroke-linejoin:miter;stroke:rgb(100%,0%,0%);stroke-opacity:1;stroke-miterlimit:10;" d="M 172.042969 174.265625 L 181.414062 173.601562 "/>
<path style="fill:none;stroke-width:1.2;stroke-linecap:butt;stroke-linejoin:miter;stroke:rgb(0%,0%,0%);stroke-opacity:1;stroke-miterlimit:10;" d="M 162.828125 177.136719 L 154.609375 194.03125 "/>
<path style=" stroke:none;fill-rule:nonzero;fill:rgb(100%,100%,100%);fill-opacity:1;" d="M 177.570312 170.304688 L 185.570312 170.304688 L 185.570312 181.304688 L 177.570312 181.304688 Z M 177.570312 170.304688 "/>
<g style="fill:rgb(100%,0%,0%);fill-opacity:1;">
  <use xlink:href="#glyph0-2" x="177.570312" y="178.967773"/>
</g>
<path style="fill:none;stroke-width:1.2;stroke-linecap:butt;stroke-linejoin:miter;stroke:rgb(0%,0%,0%);stroke-opacity:1;stroke-miterlimit:10;" d="M 154.609375 194.03125 L 135.871094 195.363281 "/>
<path style="fill:none;stroke-width:1.2;stroke-linecap:butt;stroke-linejoin:miter;stroke:rgb(0%,0%,0%);stroke-opacity:1;stroke-miterlimit:10;" d="M 152.421875 189.753906 L 137.429688 190.820312 "/>
</g>
</svg>

<svg xmlns="http://www.w3.org/2000/svg" xmlns:xlink="http://www.w3.org/1999/xlink" width="300pt" height="300pt" viewBox="0 0 300 300"><defs><symbol overflow="visible"><path d="M.453 1.594v-7.938h4.5v7.938zm.5-.5h3.5v-6.938h-3.5zm0 0"/></symbol><symbol overflow="visible" id="a"><path d="M.89-6.563h3.766v.75h-2.89v1.938h2.61v.734h-2.61V0H.89zm0 0"/></symbol><symbol overflow="visible" id="b"><path d="M3.547-5.953c-.65 0-1.164.242-1.547.72-.375.48-.563 1.13-.563 1.952 0 .835.188 1.49.563 1.967.383.48.898.72 1.547.72.644 0 1.156-.24 1.53-.72.376-.476.564-1.132.564-1.968 0-.822-.187-1.474-.562-1.954-.375-.477-.887-.72-1.53-.72zm0-.734c.914 0 1.648.312 2.203.937.55.617.828 1.438.828 2.47 0 1.042-.277 1.87-.828 2.483-.555.617-1.29.922-2.203.922-.93 0-1.668-.305-2.22-.922C.774-1.41.5-2.237.5-3.28c0-1.033.273-1.853.828-2.47.55-.625 1.29-.938 2.22-.938zm0 0"/></symbol><symbol overflow="visible" id="c"><path d="M.89-6.563H2.08l2.906 5.485v-5.484h.86V0H4.656L1.75-5.484V0H.89zm0 0"/></symbol><symbol overflow="visible" id="d"><path d="M.89-6.563h.876v2.688H5v-2.688h.89V0H5v-3.125H1.766V0H.89zm0 0"/></symbol></defs><g><path fill="#fff" d="M0 0h300v300H0z"/><path d="M39.86 169.56l4.11-8.45" stroke-width="1.2" stroke="#3cc" stroke-miterlimit="10" fill="none"/><path d="M43.97 161.11l4.108-8.45" stroke-width="1.2" stroke="#000" stroke-miterlimit="10" fill="none"/><path d="M33.86 164.06h6v11h-6zm0 0" fill="#fff"/><use xlink:href="#a" x="33.859" y="172.722" fill="#3cc"/><path d="M48.078 152.66l-10.523-15.562M50.688 148.63l-8.418-12.45M66.82 151.332l-18.742 1.328M37.555 137.098l8.218-16.895M45.773 120.203l-5.26-7.785" stroke-width="1.2" stroke="#000" stroke-miterlimit="10" fill="none"/><path d="M40.512 112.418l-5.262-7.78" stroke-width="1.2" stroke="#3cc" stroke-miterlimit="10" fill="none"/><path d="M45.773 120.203l18.743-1.332M47.96 124.477l14.993-1.063" stroke-width="1.2" stroke="#000" stroke-miterlimit="10" fill="none"/><path d="M29.25 99.137h6v11h-6zm0 0" fill="#fff"/><use xlink:href="#a" x="29.25" y="107.8" fill="#3cc"/><path d="M64.516 118.87l10.52 15.564M75.035 134.434l-8.215 16.898M70.238 134.19l-6.574 13.517M66.82 151.332l5.262 7.78" stroke-width="1.2" stroke="#000" stroke-miterlimit="10" fill="none"/><path d="M72.082 159.113l5.262 7.782M77.344 166.895l9.367-.665" stroke-width="1.2" stroke="#f00" stroke-miterlimit="10" fill="none"/><path d="M86.71 166.23l9.372-.664" stroke-width="1.2" stroke="#000" stroke-miterlimit="10" fill="none"/><path d="M73.344 161.395h8v11h-8zm0 0" fill="#fff"/><use xlink:href="#b" x="73.344" y="170.058" fill="#f00"/><path d="M96.082 165.566l5.262 7.782" stroke-width="1.2" stroke="#000" stroke-miterlimit="10" fill="none"/><path d="M101.344 173.348l5.26 7.78" stroke-width="1.2" stroke="#00f" stroke-miterlimit="10" fill="none"/><path d="M100.797 164.645l4.21 6.226" stroke-width="1.2" stroke="#000" stroke-miterlimit="10" fill="none"/><path d="M105.008 170.87l4.207 6.228" stroke-width="1.2" stroke="#00f" stroke-miterlimit="10" fill="none"/><path d="M104.3 148.668l-8.218 16.898" stroke-width="1.2" stroke="#000" stroke-miterlimit="10" fill="none"/><path d="M106.605 181.13l18.743-1.333" stroke-width="1.2" stroke="#00f" stroke-miterlimit="10" fill="none"/><path d="M103.605 175.63h7v11h-7zm0 0" fill="#fff"/><use xlink:href="#c" x="103.605" y="184.292" fill="#00f"/><path d="M125.348 179.797l4.11-8.445" stroke-width="1.2" stroke="#00f" stroke-miterlimit="10" fill="none"/><path d="M129.457 171.352l4.11-8.45M135.87 195.363l-5.26-7.78" stroke-width="1.2" stroke="#000" stroke-miterlimit="10" fill="none"/><path d="M130.61 187.582l-5.262-7.785" stroke-width="1.2" stroke="#00f" stroke-miterlimit="10" fill="none"/><path d="M122.348 174.297h7v11h-7zm0 0" fill="#fff"/><use xlink:href="#c" x="122.348" y="182.96" fill="#00f"/><path d="M133.566 162.902l-10.523-15.562M133.566 162.902l18.74-1.332M135.75 167.18l14.996-1.067M123.043 147.34l-18.742 1.328M121.48 151.88l-14.992 1.065M152.305 161.57l8.218-16.894M152.305 161.57l10.523 15.567M160.523 144.676l18.743-1.332M162.082 140.133l14.996-1.063M150 129.113l10.523 15.563M179.266 143.344l8.214-16.895M187.48 126.45l-10.523-15.563M182.766 127.367l-8.418-12.45M187.48 126.45l18.743-1.333M176.957 110.887l-18.738 1.328M158.22 112.215L150 129.113M161.37 115.84l-6.573 13.515M150 129.113l-18.742 1.328M131.258 130.44l-10.524-15.56M208.21 126.086l4.11-8.45" stroke-width="1.2" stroke="#000" stroke-miterlimit="10" fill="none"/><path d="M212.32 117.637l4.11-8.446" stroke-width="1.2" stroke="#f00" stroke-miterlimit="10" fill="none"/><path d="M204.234 124.152l4.11-8.45" stroke-width="1.2" stroke="#000" stroke-miterlimit="10" fill="none"/><path d="M208.344 115.703l4.11-8.445" stroke-width="1.2" stroke="#f00" stroke-miterlimit="10" fill="none"/><path d="M206.223 125.117l5.26 7.785" stroke-width="1.2" stroke="#000" stroke-miterlimit="10" fill="none"/><path d="M211.484 132.902l5.262 7.782" stroke-width="1.2" stroke="#00f" stroke-miterlimit="10" fill="none"/><path d="M210.44 102.723h8v11h-8zm0 0" fill="#fff"/><use xlink:href="#b" x="210.441" y="111.386" fill="#f00"/><path d="M216.746 140.684l9.37-.668" stroke-width="1.2" stroke="#00f" stroke-miterlimit="10" fill="none"/><path d="M226.117 140.016l9.367-.664" stroke-width="1.2" stroke="#000" stroke-miterlimit="10" fill="none"/><path d="M209.746 135.184h14v11h-14zm0 0" fill="#fff"/><g fill="#00f"><use xlink:href="#c" x="209.746" y="143.847"/><use xlink:href="#d" x="216.724" y="143.847"/></g><path d="M235.484 139.352l10.524 15.566M246.008 154.918l18.742-1.332M162.984 179.34l9.37-.664" stroke-width="1.2" stroke="#000" stroke-miterlimit="10" fill="none"/><path d="M172.355 178.676l9.372-.664" stroke-width="1.2" stroke="#f00" stroke-miterlimit="10" fill="none"/><path d="M162.672 174.93l9.37-.664" stroke-width="1.2" stroke="#000" stroke-miterlimit="10" fill="none"/><path d="M172.043 174.266l9.37-.664" stroke-width="1.2" stroke="#f00" stroke-miterlimit="10" fill="none"/><path d="M162.828 177.137l-8.22 16.894" stroke-width="1.2" stroke="#000" stroke-miterlimit="10" fill="none"/><path d="M177.57 170.305h8v11h-8zm0 0" fill="#fff"/><use xlink:href="#b" x="177.57" y="178.968" fill="#f00"/><path d="M154.61 194.03l-18.74 1.333M152.422 189.754l-14.992 1.066" stroke-width="1.2" stroke="#000" stroke-miterlimit="10" fill="none"/></g></svg>
